X: 4254
T: The DHU HILL
%R: jig
B: James Kerr "Merry Melodies" v.4 p.27 #254
Z: 2016 John Chambers <jc:trillian.mit.edu>
M: 6/8
L: 1/8
K: D
|:\
F2A cdc | BAG Bcd | c2c fed | cBc F3 ::\
cBc ABc | dcd B3  | cBc f2f | cAF F3 ::\
f2d dcB | ABG FGA | B2B cBc |[1 d3 A2A :|[2 dcB ABG |]

%%sep 1 1 500
%%sep 1 1 500

